inst/assets/svg/wi-night-alt-cloudy-high.svg

<?xml version="1.0" encoding="UTF-8"?>
<svg xmlns="http://www.w3.org/2000/svg" xmlns:xlink="http://www.w3.org/1999/xlink" width="30pt" height="30pt" viewBox="0 0 30 30" version="1.1">
<g id="surface606">
<path style=" stroke:none;fill-rule:nonzero;fill:rgb(0%,0%,0%);fill-opacity:1;" d="M 3.570313 13.429688 C 3.570313 12.28125 3.929688 11.25 4.648438 10.351563 C 5.371094 9.449219 6.28125 8.871094 7.378906 8.609375 C 7.699219 7.238281 8.398438 6.121094 9.5 5.238281 C 10.601563 4.359375 11.851563 3.929688 13.261719 3.929688 C 14.640625 3.929688 15.871094 4.359375 16.949219 5.210938 C 18.03125 6.058594 18.730469 7.160156 19.050781 8.5 L 19.378906 8.5 C 20.28125 8.5 21.109375 8.71875 21.871094 9.148438 C 22.628906 9.578125 23.238281 10.179688 23.679688 10.941406 C 24.121094 11.699219 24.351563 12.519531 24.351563 13.421875 C 24.351563 14.570313 24 15.601563 23.289063 16.5 C 23.929688 17.050781 24.691406 17.339844 25.550781 17.371094 L 26.210938 17.429688 C 26.328125 17.429688 26.390625 17.488281 26.390625 17.621094 L 26.390625 18.390625 C 26.398438 19.398438 26.148438 20.339844 25.660156 21.191406 C 25.171875 22.050781 24.488281 22.71875 23.640625 23.21875 C 22.789063 23.71875 21.859375 23.96875 20.851563 23.96875 C 20.078125 23.96875 19.351563 23.820313 18.660156 23.53125 C 17.96875 23.238281 17.378906 22.839844 16.878906 22.339844 C 16.390625 21.839844 15.988281 21.25 15.699219 20.558594 C 15.410156 19.871094 15.261719 19.148438 15.261719 18.390625 L 8.371094 18.390625 C 7.03125 18.328125 5.898438 17.820313 4.96875 16.859375 C 4.039063 15.898438 3.570313 14.761719 3.570313 13.429688 Z M 5.28125 13.429688 C 5.28125 14.300781 5.578125 15.050781 6.179688 15.691406 C 6.78125 16.328125 7.511719 16.671875 8.371094 16.710938 L 19.558594 16.710938 C 20.421875 16.671875 21.148438 16.328125 21.75 15.691406 C 22.351563 15.050781 22.648438 14.300781 22.648438 13.429688 C 22.648438 12.550781 22.328125 11.800781 21.679688 11.148438 C 21.03125 10.511719 20.261719 10.179688 19.371094 10.179688 L 17.75 10.179688 C 17.640625 10.179688 17.578125 10.121094 17.578125 10.011719 L 17.511719 9.429688 C 17.398438 8.351563 16.929688 7.441406 16.109375 6.71875 C 15.289063 6 14.339844 5.628906 13.25 5.628906 C 12.148438 5.628906 11.199219 5.988281 10.390625 6.71875 C 9.578125 7.449219 9.128906 8.351563 9.03125 9.429688 L 8.960938 10.011719 C 8.960938 10.121094 8.890625 10.179688 8.761719 10.179688 L 8.230469 10.179688 C 7.390625 10.28125 6.691406 10.640625 6.128906 11.25 C 5.570313 11.859375 5.28125 12.589844 5.28125 13.429688 Z M 16.710938 18.390625 C 16.710938 19.179688 16.910156 19.910156 17.308594 20.558594 C 17.710938 21.210938 18.21875 21.710938 18.851563 22.058594 C 19.480469 22.410156 20.140625 22.578125 20.839844 22.578125 C 21.460938 22.578125 22.070313 22.429688 22.660156 22.128906 C 23.261719 21.828125 23.78125 21.378906 24.238281 20.769531 C 24.699219 20.160156 24.988281 19.460938 25.101563 18.671875 C 24.019531 18.449219 23.121094 18.019531 22.378906 17.371094 C 21.539063 18.019531 20.601563 18.359375 19.558594 18.378906 L 16.710938 18.378906 Z M 16.710938 18.390625 "/>
</g>
</svg>

<?xml version="1.0" encoding="utf-8"?>
<!-- Generator: Adobe Illustrator 22.0.1, SVG Export Plug-In . SVG Version: 6.00 Build 0)  -->
<svg version="1.1" id="Layer_1" xmlns="http://www.w3.org/2000/svg" xmlns:xlink="http://www.w3.org/1999/xlink" x="0px" y="0px"
	 viewBox="0 0 30 30" style="enable-background:new 0 0 30 30;" xml:space="preserve">
<path d="M3.57,13.43c0-1.15,0.36-2.18,1.08-3.08s1.63-1.48,2.73-1.74C7.7,7.24,8.4,6.12,9.5,5.24s2.35-1.31,3.76-1.31
	c1.38,0,2.61,0.43,3.69,1.28s1.78,1.95,2.1,3.29h0.33c0.9,0,1.73,0.22,2.49,0.65c0.76,0.43,1.37,1.03,1.81,1.79
	c0.44,0.76,0.67,1.58,0.67,2.48c0,1.15-0.35,2.18-1.06,3.08c0.64,0.55,1.4,0.84,2.26,0.87l0.66,0.06c0.12,0,0.18,0.06,0.18,0.19
	v0.77c0.01,1.01-0.24,1.95-0.73,2.8c-0.49,0.86-1.17,1.53-2.02,2.03c-0.85,0.5-1.78,0.75-2.79,0.75c-0.77,0-1.5-0.15-2.19-0.44
	c-0.69-0.29-1.28-0.69-1.78-1.19c-0.49-0.5-0.89-1.09-1.18-1.78c-0.29-0.69-0.44-1.41-0.44-2.17H8.37c-1.34-0.06-2.47-0.57-3.4-1.53
	S3.57,14.76,3.57,13.43z M5.28,13.43c0,0.87,0.3,1.62,0.9,2.26s1.33,0.98,2.19,1.02h11.19c0.86-0.04,1.59-0.38,2.19-1.02
	c0.6-0.64,0.9-1.39,0.9-2.26c0-0.88-0.32-1.63-0.97-2.28c-0.65-0.64-1.42-0.97-2.31-0.97h-1.62c-0.11,0-0.17-0.06-0.17-0.17
	l-0.07-0.58c-0.11-1.08-0.58-1.99-1.4-2.71s-1.77-1.09-2.86-1.09c-1.1,0-2.05,0.36-2.86,1.09S9.13,8.35,9.03,9.43l-0.07,0.58
	c0,0.11-0.07,0.17-0.2,0.17H8.23c-0.84,0.1-1.54,0.46-2.1,1.07S5.28,12.59,5.28,13.43z M16.71,18.39c0,0.79,0.2,1.52,0.6,2.17
	c0.4,0.65,0.91,1.15,1.54,1.5c0.63,0.35,1.29,0.52,1.99,0.52c0.62,0,1.23-0.15,1.82-0.45c0.6-0.3,1.12-0.75,1.58-1.36
	s0.75-1.31,0.86-2.1c-1.08-0.22-1.98-0.65-2.72-1.3c-0.84,0.65-1.78,0.99-2.82,1.01H16.71z"/>
</svg>
